client/public/icons/weather/earthquakes.svg

<svg xmlns:x="http://ns.adobe.com/Extensibility/1.0/" xmlns:i="http://ns.adobe.com/AdobeIllustrator/10.0/" xmlns:graph="http://ns.adobe.com/Graphs/1.0/" xmlns="http://www.w3.org/2000/svg" xmlns:xlink="http://www.w3.org/1999/xlink" xmlns:a="http://ns.adobe.com/AdobeSVGViewerExtensions/3.0/" i:viewOrigin="5.4502 94.5498" i:rulerOrigin="0 0" i:pageBounds="0 100 100 0" viewBox="0 0 90.12 112.625" overflow="visible" enable-background="new 0 0 90.12 90.1" xml:space="preserve" x="0px" y="0px"><metadata><variableSets xmlns="http://ns.adobe.com/Variables/1.0/"><variableSet varSetName="binding1" locked="none"><variables/><v:sampleDataSets xmlns="http://ns.adobe.com/GenericCustomNamespace/1.0/" xmlns:v="http://ns.adobe.com/Variables/1.0/"/></variableSet></variableSets><sfw xmlns="http://ns.adobe.com/SaveForWeb/1.0/"><slices/><sliceSourceBounds x="5.45" y="4.45" width="90.12" height="90.1" bottomLeftOrigin="true"/></sfw><x:xmpmeta xmlns:x="adobe:ns:meta/" x:xmptk="XMP toolkit 3.0-29, framework 1.6"/><?xpacket begin='&#65279;' id='W5M0MpCehiHzreSzNTczkc9d'?><x:xmpmeta xmlns:x="adobe:ns:meta/" x:xmptk="XMP toolkit 3.0-29, framework 1.6"/><?xpacket end='w'?></metadata><switch><foreignObject requiredExtensions="http://ns.adobe.com/AdobeIllustrator/10.0/" x="0" y="0" width="1" height="1"/><g i:extraneous="self"><g i:layer="yes" i:visible="no" i:editable="no" i:dimmedPercent="50" i:rgbTrio="#4F008000FFFF" display="none"><rect x="0.05" y="0.05" i:knockout="Off" display="inline" fill="none" stroke="#000000" stroke-width="0.1" width="90" height="90"/></g><g i:layer="yes" i:dimmedPercent="3" i:rgbTrio="#4F00FFFF4F00"><g><path i:knockout="Off" d="M43.748,73.071l-18.523-6.104l20.064-7.973l-0.383,0.053L19.617,66.81l16.121,6.081        c0,0-5.913,3.078-34.958,17.047h15.993l12.291-7.685l9.495,7.685h12.046l-18.397-9.65L43.748,73.071z"/><polygon i:knockout="Off" points="65.16,79.973 78.405,73.055 61.966,67.613 74.477,73.281 58.961,80.314 75.797,89.968         90.12,89.938 "/></g><rect x="5.512" y="29.274" i:knockout="Off" width="2.999" height="2.998"/><rect x="8.251" y="17.717" i:knockout="Off" transform="matrix(-0.5611 -0.8277 0.8277 -0.5611 -0.6845 38.0687)" width="2.998" height="2.997"/><rect x="13.199" y="14.354" i:knockout="Off" transform="matrix(0.5612 0.8277 -0.8277 0.5612 19.5688 -5.2087)" width="2.996" height="2.996"/><rect x="4.56" y="23.339" i:knockout="Off" width="2.996" height="2.997"/><rect x="14.22" y="33.348" i:knockout="Off" width="2.998" height="2.991"/><rect x="13.54" y="27.375" i:knockout="Off" width="2.998" height="2.998"/><rect x="22.638" y="18.861" i:knockout="Off" transform="matrix(-0.5611 -0.8278 0.8278 -0.5611 20.8259 51.7622)" width="2.997" height="2.996"/><rect x="27.584" y="15.497" i:knockout="Off" transform="matrix(-0.5612 -0.8277 0.8277 -0.5612 31.3347 50.6057)" width="2.997" height="2.998"/><rect x="17.648" y="22.181" i:knockout="Off" transform="matrix(-0.5613 -0.8276 0.8276 -0.5613 10.2951 52.8154)" width="2.997" height="2.996"/><rect x="14.964" y="39.245" i:knockout="Off" width="2.998" height="2.985"/><rect x="82.574" y="28.922" i:knockout="Off" width="3" height="2.997"/><rect x="79.836" y="17.366" i:knockout="Off" transform="matrix(0.5606 -0.8281 0.8281 0.5606 20.1146 75.6387)" width="2.996" height="2.997"/><polygon i:knockout="Off" points="74.309,15.9 76.786,17.583 78.471,15.102 75.987,13.419 "/><rect x="83.472" y="23.016" i:knockout="Off" width="2.993" height="2.997"/><rect x="74.183" y="32.997" i:knockout="Off" width="2.994" height="2.993"/><rect x="74.86" y="27.023" i:knockout="Off" width="2.998" height="2.998"/><rect x="65.768" y="18.509" i:knockout="Off" transform="matrix(-0.8275 -0.5615 0.5615 -0.8275 111.6918 74.3319)" width="2.994" height="2.997"/><rect x="60.821" y="15.146" i:knockout="Off" transform="matrix(-0.8276 -0.5613 0.5613 -0.8276 104.5487 65.3994)" width="2.992" height="2.997"/><rect x="70.754" y="21.829" i:knockout="Off" transform="matrix(0.5613 -0.8276 0.8276 0.5613 12.3916 70.0312)" width="2.998" height="2.996"/><rect x="73.436" y="38.895" i:knockout="Off" width="2.999" height="2.984"/><line i:knockout="Off" x1="65.466" y1="51.793" x2="65.303" y2="51.793"/><path i:knockout="Off" d="M65.466,51.793h-0.163l2.486-19.712L51.913,21.343l-3.651,2.353l-0.161-0.105l-6.351-4.095       l-0.817,0.554L24.215,31.358l2.58,20.435H0.217v2.99h89.732v-2.99H65.466z M34.944,32.286l-1.562,19.507h-0.156H29.81       c-0.564-4.46-2.223-17.602-2.396-18.986c1.305-0.883,12.977-8.778,14.376-9.725c0.414,0.267,3.713,2.395,3.713,2.395       L34.944,32.286z"/></g></g></switch><text x="0" y="105.1" fill="#000000" font-size="5px" font-weight="bold" font-family="'Helvetica Neue', Helvetica, Arial-Unicode, Arial, Sans-serif">Created by Hayashi Fumihiro</text><text x="0" y="110.1" fill="#000000" font-size="5px" font-weight="bold" font-family="'Helvetica Neue', Helvetica, Arial-Unicode, Arial, Sans-serif">from the Noun Project</text></svg>

<?xml version="1.0" encoding="UTF-8" standalone="no"?>
<svg
   xmlns:ns0="http://ns.adobe.com/SaveForWeb/1.0/"
   xmlns:ns="http://ns.adobe.com/Variables/1.0/"
   xmlns:i="http://ns.adobe.com/AdobeIllustrator/10.0/"
   xmlns:x="adobe:ns:meta/"
   xmlns:dc="http://purl.org/dc/elements/1.1/"
   xmlns:cc="http://creativecommons.org/ns#"
   xmlns:rdf="http://www.w3.org/1999/02/22-rdf-syntax-ns#"
   xmlns:svg="http://www.w3.org/2000/svg"
   xmlns="http://www.w3.org/2000/svg"
   xmlns:sodipodi="http://sodipodi.sourceforge.net/DTD/sodipodi-0.dtd"
   xmlns:inkscape="http://www.inkscape.org/namespaces/inkscape"
   i:viewOrigin="5.4502 94.5498"
   i:rulerOrigin="0 0"
   i:pageBounds="0 100 100 0"
   viewBox="0 0 89.902997 76.549004"
   overflow="visible"
   enable-background="new 0 0 90.12 90.1"
   xml:space="preserve"
   x="0px"
   y="0px"
   version="1.1"
   id="svg68"
   sodipodi:docname="earthquakes.svg"
   width="89.903"
   height="76.549004"
   style="overflow:visible"
   inkscape:version="0.92.3 (2405546, 2018-03-11)"><defs
     id="defs72" /><sodipodi:namedview
     pagecolor="#ffffff"
     bordercolor="#666666"
     borderopacity="1"
     objecttolerance="10"
     gridtolerance="10"
     guidetolerance="10"
     inkscape:pageopacity="0"
     inkscape:pageshadow="2"
     inkscape:window-width="3000"
     inkscape:window-height="1955"
     id="namedview70"
     showgrid="false"
     fit-margin-top="0"
     fit-margin-left="0"
     fit-margin-right="0"
     fit-margin-bottom="0"
     inkscape:zoom="2.0954495"
     inkscape:cx="44.843001"
     inkscape:cy="33.6555"
     inkscape:window-x="-13"
     inkscape:window-y="-13"
     inkscape:window-maximized="1"
     inkscape:current-layer="svg68" /><metadata
     id="metadata2"><ns:variableSets><ns:variableSet
         varSetName="binding1"
         locked="none"><ns:variables /><ns:sampleDataSets /></ns:variableSet></ns:variableSets><ns0:sfw><ns0:slices /><ns0:sliceSourceBounds
         x="5.45"
         y="4.45"
         width="90.12"
         height="90.1"
         bottomLeftOrigin="true" /></ns0:sfw><x:xmpmeta
       x:xmptk="XMP toolkit 3.0-29, framework 1.6" /><?xpacket begin='&#65279;' id='W5M0MpCehiHzreSzNTczkc9d'?><x:xmpmeta
       x:xmptk="XMP toolkit 3.0-29, framework 1.6" /><?xpacket end='w'?><rdf:RDF><cc:Work
         rdf:about=""><dc:format>image/svg+xml</dc:format><dc:type
           rdf:resource="http://purl.org/dc/dcmitype/StillImage" /><dc:title></dc:title></cc:Work></rdf:RDF></metadata><switch
     id="switch62"
     transform="translate(-0.217,-13.419)"><foreignObject
       requiredExtensions="http://ns.adobe.com/AdobeIllustrator/10.0/"
       x="0"
       y="0"
       width="1"
       height="1" /><g
       i:extraneous="self"
       id="g60"><g
         i:layer="yes"
         i:visible="no"
         i:editable="no"
         i:dimmedPercent="50"
         i:rgbTrio="#4F008000FFFF"
         display="none"
         id="g6"
         style="display:none"><rect
           x="0.050000001"
           y="0.050000001"
           i:knockout="Off"
           display="inline"
           width="90"
           height="90"
           id="rect4"
           style="display:inline;fill:none;stroke:#000000;stroke-width:0.1" /></g><g
         i:layer="yes"
         i:dimmedPercent="3"
         i:rgbTrio="#4F00FFFF4F00"
         id="g58"><g
           id="g12"><path
             i:knockout="Off"
             d="m 43.748,73.071 -18.523,-6.104 20.064,-7.973 -0.383,0.053 -25.289,7.763 16.121,6.081 c 0,0 -5.913,3.078 -34.958,17.047 h 15.993 l 12.291,-7.685 9.495,7.685 h 12.046 l -18.397,-9.65 z"
             id="path8"
             inkscape:connector-curvature="0" /><polygon
             i:knockout="Off"
             points="61.966,67.613 74.477,73.281 58.961,80.314 75.797,89.968 90.12,89.938 65.16,79.973 78.405,73.055 "
             id="polygon10" /></g><rect
           x="5.5120001"
           y="29.274"
           i:knockout="Off"
           width="2.9990001"
           height="2.9979999"
           id="rect14" /><rect
           x="8.2510004"
           y="17.716999"
           i:knockout="Off"
           transform="matrix(-0.5611,-0.8277,0.8277,-0.5611,-0.6845,38.0687)"
           width="2.9979999"
           height="2.997"
           id="rect16" /><rect
           x="13.199"
           y="14.354"
           i:knockout="Off"
           transform="matrix(0.5612,0.8277,-0.8277,0.5612,19.5688,-5.2087)"
           width="2.9960001"
           height="2.9960001"
           id="rect18" /><rect
           x="4.5599999"
           y="23.339001"
           i:knockout="Off"
           width="2.9960001"
           height="2.997"
           id="rect20" /><rect
           x="14.22"
           y="33.348"
           i:knockout="Off"
           width="2.9979999"
           height="2.9909999"
           id="rect22" /><rect
           x="13.54"
           y="27.375"
           i:knockout="Off"
           width="2.9979999"
           height="2.9979999"
           id="rect24" /><rect
           x="22.638"
           y="18.861"
           i:knockout="Off"
           transform="matrix(-0.5611,-0.8278,0.8278,-0.5611,20.8259,51.7622)"
           width="2.997"
           height="2.9960001"
           id="rect26" /><rect
           x="27.584"
           y="15.497"
           i:knockout="Off"
           transform="matrix(-0.5612,-0.8277,0.8277,-0.5612,31.3347,50.6057)"
           width="2.997"
           height="2.9979999"
           id="rect28" /><rect
           x="17.648001"
           y="22.181"
           i:knockout="Off"
           transform="matrix(-0.5613,-0.8276,0.8276,-0.5613,10.2951,52.8154)"
           width="2.997"
           height="2.9960001"
           id="rect30" /><rect
           x="14.964"
           y="39.244999"
           i:knockout="Off"
           width="2.9979999"
           height="2.9849999"
           id="rect32" /><rect
           x="82.573997"
           y="28.922001"
           i:knockout="Off"
           width="3"
           height="2.997"
           id="rect34" /><rect
           x="79.835999"
           y="17.365999"
           i:knockout="Off"
           transform="matrix(0.5606,-0.8281,0.8281,0.5606,20.1146,75.6387)"
           width="2.9960001"
           height="2.997"
           id="rect36" /><polygon
           i:knockout="Off"
           points="78.471,15.102 75.987,13.419 74.309,15.9 76.786,17.583 "
           id="polygon38" /><rect
           x="83.472"
           y="23.016001"
           i:knockout="Off"
           width="2.993"
           height="2.997"
           id="rect40" /><rect
           x="74.182999"
           y="32.997002"
           i:knockout="Off"
           width="2.994"
           height="2.993"
           id="rect42" /><rect
           x="74.860001"
           y="27.023001"
           i:knockout="Off"
           width="2.9979999"
           height="2.9979999"
           id="rect44" /><rect
           x="65.767998"
           y="18.509001"
           i:knockout="Off"
           transform="matrix(-0.8275,-0.5615,0.5615,-0.8275,111.6918,74.3319)"
           width="2.994"
           height="2.997"
           id="rect46" /><rect
           x="60.820999"
           y="15.146"
           i:knockout="Off"
           transform="matrix(-0.8276,-0.5613,0.5613,-0.8276,104.5487,65.3994)"
           width="2.9920001"
           height="2.997"
           id="rect48" /><rect
           x="70.753998"
           y="21.829"
           i:knockout="Off"
           transform="matrix(0.5613,-0.8276,0.8276,0.5613,12.3916,70.0312)"
           width="2.9979999"
           height="2.9960001"
           id="rect50" /><rect
           x="73.435997"
           y="38.895"
           i:knockout="Off"
           width="2.9990001"
           height="2.984"
           id="rect52" /><line
           i:knockout="Off"
           x1="65.466003"
           y1="51.792999"
           x2="65.303001"
           y2="51.792999"
           id="line54" /><path
           i:knockout="Off"
           d="M 65.466,51.793 H 65.303 L 67.789,32.081 51.913,21.343 48.262,23.696 48.101,23.591 41.75,19.496 40.933,20.05 24.215,31.358 26.795,51.793 H 0.217 v 2.99 h 89.732 v -2.99 z M 34.944,32.286 33.382,51.793 H 33.226 29.81 c -0.564,-4.46 -2.223,-17.602 -2.396,-18.986 1.305,-0.883 12.977,-8.778 14.376,-9.725 0.414,0.267 3.713,2.395 3.713,2.395 z"
           id="path56"
           inkscape:connector-curvature="0" /></g></g></switch></svg>
